X: 1
T: The Humours Of Kinvara
R: reel
M: 4/4
L: 1/8
K: Edor
c|:BE (3EEE BEdc|BE (3EEE BcdB|cA (3AAA cdeA|(3Bcd ef e2de:|
|:fffe dcBA|fffe d4|fffe fgaf|ecAc e2de:|


Tune 294	Setting 2150

